X:1
T:Title
%%score { 1 | 2 }
L:1/8
M:4/4
K:Eb
V:1 treble nm="Grand Piano"
V:2 bass 
V:1
 z4 z2[Q:1/4=100] E2 | G3 G G2 [B,DF]2 | [B,EG]4 [B,FA]4 | [B,GB]2 [B,GB]4 [G,E]2 | %4
 [EG]3 [EG] [EG]2 [DF]2 | E2 G4 E2 | D2 F4 E2 | [EG]3- [EG]/-(3[EG]/4A/4-[GA]/4 F4 | E8 | [CE]8 | %10
 [B,E]8 |] %11
V:2
 z4 z2 [E,G,]2 | [E,B,E]3 [E,B,E] [E,B,E]2 B,,2 | E,4 E,4 | E,2 E,4 E,2 | %4
 [B,,B,]3 [B,,B,] [B,,B,]2 [B,,A,]2 | [E,G,]2 [E,B,E]4 [E,G,B,]2 | %6
 [B,,A,B,]2 [B,,A,B,]4 [B,,G,B,]2 | [B,,B,]4 [B,,A,B,]4 | [E,G,B,]8 | [A,,A,]8 | [E,G,]8 |] %11

